X:1
T:Title
%%score { ( 1 3 ) | ( 2 4 ) }
L:1/8
Q:1/4=104
M:4/4
K:G
V:1 treble nm="Grand Piano"
V:3 treble 
V:2 treble 
V:4 treble 
V:1
 d>c B>c d2 e2 | d4 B4 | G4 z4 | B6 z2 | d>c B>c d2 e2 | d4 B4 | A4 z4 | [Fd]6 z2 | %8
w: Geo.~C.~Hugg * * * * *||||||||
 [Ac]>[GB] [FA]>[GB] [Ac]2 [Fe]2 | [Gd]4 [GB]4 | [Ac]4 [GB]2 [FA]2 | B6 z2 | G>F G>A B2 c2 | %13
w: |||||
 [Gd]4 [EGe]4 | d2 z2 z4 | G6 z2 | d>c B>c d2 e2 | d4 B4 | [FA]4 [Bd]2 [Ac]2 | B6 z2 | %20
w: |||||||
 d>c B>c d2 [DGd]2 | f2 z2 z4 | [DB]4 [GA]2 [FA]2 | G6 z2 |] %24
w: ||||
V:2
 [G,B,G]>[G,CG] [G,DG]>[G,A,G] [G,B,G]2 [G,CG]2 | [G,B,G]4 [G,DG]4 | B,4 z4 | [G,DG]6 z2 | %4
 [G,B,G]>[G,CG] [G,DG]>[G,A,G] [G,B,G]2 [G,CG]2 | [G,B,G]4 [G,DG]4 | [^CG]4 [A,CG]2 [A,EG]2 | %7
 [D,D]6 z2 | [D,D]>[D,D] [D,D]>[D,D] [D,D]2 [D,C]2 | [G,B,]4 [G,D]4 | [D,D]4 [D,D]2 [D,D]2 | %11
 [G,DG]6 z2 | G,>F, G,>A, B,2[K:treble] C2 | B,4 z4[K:bass] | B,2 z2 z4 | [G,B,]6 z2 | %16
 [G,B,G]>[G,CG] [G,DG]>[G,A,G] [G,B,G]2 [G,CG]2 | [G,B,G]4 [G,DG]4 | [D,D]4 [D,D]2 [D,D]2 | %19
 [G,DG]6 z2 | [G,B,G]>[G,CG] [G,DG]>[G,A,G] [G,B,G]2[K:bass] B,,2 | [C,C]4 [B,,^G,]2 [A,,A,]2 | %22
 [D,G,]4 [D,D]2 [D,C]2 | [G,B,]6 z2 |] %24
V:3
 x8 | x8 | z2 E,2 [GA]2 [FA]2 | x8 | x8 | x8 | z2 E,2 B2 ^c2 | x8 | x8 | x8 | x8 | x8 | x8 | x8 | %14
 G2- [EGc]2 [GB]2 [FA]2 | x8 | x8 | x8 | x8 | x8 | x8 | G2- [Ge]2 [=Fd]2 [Ec]2 | x8 | x8 |] %24
V:4
 x8 | x8 | G,2 z2 [D,D]2 [D,D]2 | x8 | x8 | x8 | A,2 z2 z4 | x8 | x8 | x8 | x8 | x8 | %12
 x6[K:treble] x2 | z2 =F2 C2[K:bass] C,2 | D,4 [D,D]2 [D,C]2 | x8 | x8 | x8 | x8 | x8 | %20
 x6[K:bass] x2 | x8 | x8 | x8 |] %24

